!!!!SEGMENT: pl-wnifc--13846--015_anonim--piesni-polskie-i-ruskie-ludu-galicyjskiego-15-maszerujut-szwolizery.krn
!!!kernsource:
!!!cenid: 18xx:3237
!!!COM: Anonim
!!!COM-rismID: pe30004985
!!!CDT:
!!!CNT:
!!!GTL: Pieśni polskie i ruskie ludu galicyjskiego
!!!OTL: 15. Maszerujut szwoliżery
!!!PDT: 1833
!!!AGN:
!!!SMS-siglum: PL-Wnifc
!!!SMS-shelfmark: 13846
!!!SMS-shelfwork: 015 G
!!!NIFC-rismSourceID: 1001036701
!!!NIFC-rismChildID: 1001036741
!!!NIFC-islandoraID: nifc:210326
!!!URL-pdf-islandora: https://repozytorium.nifc.pl/islandora/object/nifc%3A210326/datastream/PDF/view
!!!URL-scan:
!!!ONB-nifc:
!!!AIN: 1 piano 1 vox
!!!key: A
!!!OMD: Alegretto.
**kern	**kern	**kern	**text
*part2	*part2	*part1	*part1
*staff3	*staff2	*staff1	*staff1
*I"FORTEPIAN.	*I"FORTEPIAN.	*I"GŁOS.	*
*Ipiano	*Ipiano	*Ivox	*
*ICklav	*ICklav	*ICvox	*
*IGacmp	*IGacmp	*IGsolo	*
*clefF4	*clefG2	*clefG2	*
*k[f#c#g#]	*k[f#c#g#]	*k[f#c#g#]	*
*A:	*A:	*A:	*
*M2/4	*M2/4	*M2/4	*
=1-	=1-	=1-	=1-
*^	*	*	*
!	!	!	!LO:TX:a:t=C.d.61.	!
8r	2AA\	8e/L 8c#/	8e/	Ma-
(<8A/L	.	8e/J 8c#/	8e/	-sze-
8E/	.	8a/L 8c#/	8a/	-ru-
8A/J)	.	16cc#/L 16a/	(16cc#\LL	-jut
.	.	16ee\JJ 16cc#\	16ee\JJ)	.
=2	=2	=2	=2	=2
*	*^	*	*	*
8r	2AA/	2AA\	8dd\L 8b\	8dd\	szwo-
(<8E/L	.	.	8b\J 8g#\	8b\	-li-
8A/	.	.	8cc#\	8cc#\	-że-
8E/J)	.	.	8a/ 8c#/	8a\	-ry
*	*v	*v	*	*	*
!!LO:LB:g=original
=3	=3	=3	=3	=3
8r	2AA\	8e/L 8c#/	8e/	szcza-
(<8A/L	.	8e/J 8c#/	8e/	-sły-
8E/	.	8a/L 8c#/	8a/	-wa
8A/J)	.	(16cc#/L 16a/	(16cc#\LL	im
.	.	16ee\JJ 16cc#\)	16ee\JJ)	.
=4	=4	=4	=4	=4
8F#/L	4D\ 4AA\	8dd/L 8f#/	8dd\	do-
8Fn/J	.	8b/J 8g#/	8b\	-ro-
*v	*v	*	*	*
4A\ 4E\ 4C#\ 4AA\;	4ee\ 4a\ 4e\;	4ee\;	-ha
=5	=5	=5	=5
4AA/ 4AAA/	(8.ff#\L 8.dd\	(>8.ff#\L	hej
.	16dd\Jk 16b\)	16dd\Jk)	.
4A/ 4AA/	(8.ee\L 8.cc#\	(8.ee\L	ha
.	16cc#\Jk 16a\)	16cc#\Jk)	.
!!LO:LB:g=original
=6	=6	=6	=6
4AA/ 4AAA/	8dd'\L 8b\	8dd\	ha,
.	(16dd\L 16b\	(16dd\LL	ha,
.	16ff#\JJ 16dd\)	16ff#\JJ)	.
4A/ 4AA/	8.ee\L 8.cc#\	(8.ee\L	ha,
.	16cc#\Jk 16a\	16cc#\Jk)	.
=7	=7	=7	=7
*^	*	*	*
4r	(2EE\	16dd\LL	(16dd\LL	szcza-
.	.	16cc#\JJ	16cc#\JJ)	.
.	.	16b\LL	(16b\LL	-sły-
.	.	16a\JJ	16a\JJ)	.
4E/ 4BB/)	.	8g#/L	8g#/L	-wa
.	.	8e/J	8e/J	im
*v	*v	*	*	*
=8	=8	=8	=8
(4E/ 4EE/	8f#/L 8d#X/	8f#/	do-
.	8g#/ 8dn/	8g#/	-ro-
8E/ 8AA/)	8a/J 8c#/	8a/	-ha.
8r	8r	8r	.
==	==	==	==
*-	*-	*-	*-
!!!system-decoration: s1{(s2,s3)}
!!!RDF**kern: < = below
!!!ENC: Marta Lawrence
!!!END: 2021-11-10
!!!YEC: Copyright 2022 Narodowy Instytut Fryderyka Chopina (https://polishscores.org)
!!!YEM: License CC-BY-4.0 (https://creativecommons.org/licenses/by/4.0)
